X:1
T:Bolero de Ravel primera parte
C:Maurice Ravel
L:1/16
Q:1/4=72
M:3/4
K:Cmaj
V:1 
C4 z4 z4 |z4 z4 z4 |z4 z4 z4 |z4 z4 z4 |c4- c2Bc dcBA | c2cA c4- c2Bc | AGEF G8- | GFED EFGA G4- |G4- GABA GFED | EDC2- C2CD E2F2 | D4 G8- | G8- G4 | d4- d2>c2 BABc | dcB2- BcBA cBAF- | F2FF F2A2 cABG | F2FF F2A2 BGAF | D2DC D4- D2DD | D2F2 AFGE D2DC | D4- D2DC D2EF | G8- GFED |  C4-C4-C4 | z4 z4 z4 | c4- c2Bc dcBA | c2cA c4- c2Bc |  AGEF G8- | GFED EFGA G4- | G4- GABA GFED | EDC2- C2CD E2F2 |  D4 G8- | G8- G4 |d4- d2>c2 BABc | dcB2- BcBA cBAF- |  F2FF F2A2 cABG | F2FF F2A2 BGAF | D2DC D4- D2DD |D2F2 AFGE D2DC |  D4- D2DC D2EF | G8- GFED | C6-C6 |z4 z4 z4|
